X:1
T:Joseph Haydn
T:Haydn
%%score { ( 1 2 ) | ( 3 4 ) }
L:1/8
M:3/4
K:D
V:1 treble nm="Piano"
V:2 treble 
V:3 bass 
V:4 bass 
V:1
 F4 (GE) | (F2 G2) A2 | B4 e2 | d2 A2 AA | A2 G2 FF | (F2 E2) D2 | (C2 G2) F2 | (F2 E2) z2 | %8
 F4 (GE) | (F2 G2) A2 | B4 e2 | d2 A2 AA | A2 F2 GG | (G2 E2) F2 | (FE D2) C2 | D4 z2 | D6 | D6 |] %18
V:2
 D4 EC | D2 E2 F2 | G4 G2 | F2 F2 FF | D2 D2 CC | B,4 =D2 | A,2 C2 D2 | D2 C2 z2 | D4 EC | %9
 D2 E2 F2 | G4 G2 | F2 F2 FD | ^D2 D2 E=D | C4 D=C | B,2 A,2 A,2 | A,4 z2 | B,6 | A,6 |] %18
V:3
 A,4 A,2 | A,4 A,2 | (G,3 A,) B,C | D2 D2 A,A, | B,2 G,2 A,A, | B,4 A,2 | G,2 A,2 A,2 | A,4 z2 | %8
 A,4 A,2 | A,4 A,2 | G,3 A, B,C | B,2 B,2 A,A, | B,2 B,2 B,B, | A,4 A,2 | (G,2 F,2) E,G, | F,4 z2 | %16
 G,6 | F,6 |] %18
V:4
 D,4 D,2 | D,4 D,2 | D,4 D,2 | D,2 D,2 D,D, | B,,2 B,,2 A,,A,, | (G,,2 G,2) F,2 | E,4 D,2 | %7
 A,,4 z2 | D,4 D,2 | D,4 D,2 | D,4 D,2 | D,2 D,2 D,C, | B,,2 B,,2 E,E, | A,,4 D,2 | %14
 G,,2 A,,2 A,,2 | D,4 z2 | G,,6 | D,6 |] %18

